X:1
T: Marching to Praetorius
N:
C:Pierre Caroubel
S:Tune is "Gavotte"
A:
O:
R:
M:4/4
K:G
I:speed 210
%W: A
% voice 1 (1 lines, 22 notes)
K:G
M:4/4
L:1/16
B2 c2 d2 e2 d4 c4 |B6 c2 B4 G4 |A2 G2 A2 B2 A2 B2 c2 d2 |B4 A2 B2 G8 |
%W:
% voice 1 (1 lines, 22 notes)
B2 c2 d2 e2 d4 c4 |B6 c2 B4 G4 |A2 G2 A2 B2 A2 B2 c2 d2 |B4 A2 B2 G8 |
%W: B
% voice 1 (1 lines, 18 notes)
B6 A2 G2 A2 B2 G2 |A8 A4 G2 A2 |B2 c2 d2 e2 c4 B4 |A8 A8 |
%W:
% voice 1 (1 lines, 20 notes)
B2 A2 B2 c2 B2 c2 d4 |B4 A2 G2 A4 G2 A2 |B4 A2 G2 F4 G4 |A8 A8 |
%W: C
% voice 1 (1 lines, 15 notes)
d8 e4 c4 |d6 c2 B4 G4 |d8 e4 c4 |d2 c2 B2 A2 G8 |
%W:
% voice 1 (1 lines, 15 notes)
d8 e4 c4 |d6 c2 B4 G4 |d8 e4 c4 |d2 c2 B2 A2 G8 ||
